assets/img/braze_icons/microphone-02.svg

<svg fill="none" height="24" viewBox="0 0 24 24" width="24" xmlns="http://www.w3.org/2000/svg"><g clip-rule="evenodd" fill="#801ed7" fill-rule="evenodd"><path d="m4 11c.55228 0 1 .4477 1 1v1c0 3.866 3.13401 7 7 7 3.866 0 7-3.134 7-7v-1c0-.5523.4477-1 1-1s1 .4477 1 1v1c0 4.9706-4.0294 9-9 9-4.97056 0-9-4.0294-9-9v-1c0-.5523.44772-1 1-1z"/><path d="m7 7c0-2.76142 2.23858-5 5-5 2.7614 0 5 2.23858 5 5v6c0 2.7614-2.2386 5-5 5-2.76142 0-5-2.2386-5-5z"/></g></svg>

<svg width="24" height="24" viewBox="0 0 24 24" fill="none" xmlns="http://www.w3.org/2000/svg">
<path fill-rule="evenodd" clip-rule="evenodd" d="M4 11C4.55228 11 5 11.4477 5 12V13C5 16.866 8.13401 20 12 20C15.866 20 19 16.866 19 13V12C19 11.4477 19.4477 11 20 11C20.5523 11 21 11.4477 21 12V13C21 17.9706 16.9706 22 12 22C7.02944 22 3 17.9706 3 13V12C3 11.4477 3.44772 11 4 11Z" fill="#801ED7"/>
<path fill-rule="evenodd" clip-rule="evenodd" d="M7 7C7 4.23858 9.23858 2 12 2C14.7614 2 17 4.23858 17 7V13C17 15.7614 14.7614 18 12 18C9.23858 18 7 15.7614 7 13V7Z" fill="#801ED7"/>
</svg>
